X: 9332
T: Dancing At Lughnasa
R: reel
M: 4/4
K: Gmajor
|:Bc|d3B c3A|BdcA BG G2|AD D2 DEFG|AD D2 DEFA|
d3B c3A|BdcA BG G2|AD D2 DEFG|AcAF G2 Bc|
dGBG cGBG|BcdA BG G2|AD D2 DEFG|AD D2 DEFA|
d3B c3A|BdcA BG G2|AD D2 DEFG|AcAF G2z2||
|:e3A f3e|gfed cA A2|cAeA fAeA|faaf gfeA|
e3A f3e|gfed cA A2|A2 ef ga a2|fgec d3A:|

